icon-svg/floor-shade.svg

<?xml version="1.0" encoding="UTF-8"?>
<svg width="32px" height="32px" viewBox="0 0 32 32" fill="#44739e" version="1.1" xmlns="http://www.w3.org/2000/svg" xmlns:xlink="http://www.w3.org/1999/xlink">
            <path d="M12.419,2.3025 C14.383,1.8995 17.611,1.8995 19.578,2.3025 C21.518,2.6995 21.458,3.3325 19.493,3.7165 C17.556,4.0945 14.45,4.0945 12.511,3.7165 C10.544,3.3325 10.482,2.6995 12.419,2.3025 M20.892,12.4315 C22.095,12.0945 22.785,11.6685 22.956,11.2265 C22.987,11.1505 23,11.0795 23,11.0045 L23,1.9925 C23,1.9175 22.987,1.8425 22.956,1.7715 C22.79,1.3455 22.147,0.9335 21.01,0.6015 C18.258,-0.2005 13.738,-0.2005 10.986,0.6015 C9.854,0.9335 9.21,1.3455 9.044,1.7715 C9.013,1.8425 9,1.9175 9,1.9925 L9,11.0045 C9,11.0795 9.013,11.1505 9.044,11.2265 C9.215,11.6685 9.91,12.0945 11.113,12.4315 C12.213,12.7385 13.582,12.9135 15,12.9725 L15,27.0235 C12.073,27.1365 9.721,27.7315 9.14,28.4995 C9.047,28.6195 9,28.7465 9,28.8745 L9,30.1245 C9,31.1595 12.135,31.9995 16,31.9995 C19.865,31.9995 23,31.1595 23,30.1245 L23,28.8745 C23,27.9315 20.391,27.1515 17,27.0215 L17,12.9725 C18.42,12.9145 19.791,12.7395 20.892,12.4315"></path>
</svg>

<svg xmlns="http://www.w3.org/2000/svg" fill="#44739e" viewBox="0 0 24 24"><path d="M12.419 2.3025c1.964-.403 5.192-.403 7.159 0 1.94.397 1.88 1.03-.085 1.414-1.937.378-5.043.378-6.982 0-1.967-.384-2.029-1.017-.092-1.414m8.473 10.129c1.203-.337 1.893-.763 2.064-1.205a.57.57 0 0 0 .044-.222v-9.012c0-.075-.013-.15-.044-.221-.166-.426-.809-.838-1.946-1.17-2.752-.802-7.272-.802-10.024 0-1.132.332-1.776.744-1.942 1.17a.55.55 0 0 0-.044.221v9.012c0 .075.013.146.044.222.171.442.866.868 2.069 1.205 1.1.307 2.469.482 3.887.541v14.051c-2.927.113-5.279.708-5.86 1.476-.093.12-.14.247-.14.375v1.25c0 1.035 3.135 1.875 7 1.875s7-.84 7-1.875v-1.25c0-.943-2.609-1.723-6-1.853v-14.049c1.42-.058 2.791-.233 3.892-.541"/></svg>
